portfolio/adventure/img/svg/arrow-right.svg

<svg xmlns="http://www.w3.org/2000/svg" width="15" height="29"><path d="M.639 24.919l9.819-10.666L.511 3.448v-.001a2.123 2.123 0 0 1-.525-1.413C-.014.911.825-.001 1.86-.001c.505 0 .964.217 1.3.571l.001-.001 11.245 12.214h-.001c.354.37.574.89.574 1.466v.008c0 .576-.22 1.096-.574 1.466h.001L3.161 27.938l-.005-.006a1.79 1.79 0 0 1-1.296.567c-1.035 0-1.874-.911-1.874-2.036 0-.617.253-1.171.653-1.544z" fill-rule="evenodd"/></svg>

<svg xmlns="http://www.w3.org/2000/svg" xmlns:xlink="http://www.w3.org/1999/xlink" preserveaspectratio="xMidYMid" width="15" height="29" viewbox="0 0 15 29">
  <defs>
  </defs>
  <path d="M0.639,24.919 C0.639,24.919 10.458,14.253 10.458,14.253 C10.458,14.253 0.511,3.448 0.511,3.448 C0.511,3.448 0.511,3.447 0.511,3.447 C0.186,3.081 -0.014,2.583 -0.014,2.034 C-0.014,0.911 0.825,-0.001 1.860,-0.001 C2.365,-0.001 2.824,0.216 3.160,0.570 C3.160,0.570 3.161,0.569 3.161,0.569 C3.161,0.569 14.406,12.783 14.406,12.783 C14.406,12.783 14.405,12.783 14.405,12.783 C14.759,13.153 14.979,13.673 14.979,14.249 C14.979,14.251 14.979,14.252 14.979,14.253 C14.979,14.255 14.979,14.256 14.979,14.257 C14.979,14.833 14.759,15.353 14.405,15.723 C14.405,15.723 14.406,15.723 14.406,15.723 C14.406,15.723 3.161,27.938 3.161,27.938 C3.161,27.938 3.156,27.932 3.156,27.932 C2.820,28.283 2.363,28.499 1.860,28.499 C0.825,28.499 -0.014,27.588 -0.014,26.463 C-0.014,25.846 0.239,25.292 0.639,24.919 Z" id="path-1" fill-rule="evenodd"/>
</svg>
